X:1
T:Hans Leo Haßler (1564-1612) 1608 
T:Vom Himmel hoch da komm ich her
%%score [ 1 2 3 4 ]
L:1/8
Q:1/4=120
M:4/4
K:C
V:1 treble nm="MusicXML Part"
V:2 treble nm="MusicXML Part"
V:3 treble-8 nm="MusicXML Part"
V:4 bass nm="MusicXML Part"
V:1
 c | B2 A2 B2 G2 | A2 B2 c2 z c | c2 G2 G2 E2 | G2 F2 E2 z E | A2 A2 G2 B2 | c2 A2 G2 z c | %7
w: Vom|Him- mel hoch da|komm ich her, ich|bring euch gu- te|neu- e Mär, der|gu- ten Mär bring|ich so- viel, da-|
 B2 A2 G2 G2 | (FE) D2 !fermata!C2 z |] %9
w: von ich sing'n und|sa- * gen will.|
V:2
 G | G2 F2 D2 E2 | D2 D2 E2 z E | E2 D2 C2 B,2 | E2 D2 ^C2 z =C | C2 F2 D2 G2 | E2 D2 B,2 z E | %7
w: Vom|Him- mel hoch da|komm ich her, ich|bring euch gu- te|neu- e Mär, der|gu- ten Mär bring|ich so- viel, da-|
 E2 C2 C2 C2 | C2 B,2 !fermata!G,2 z |] %9
w: von ich sing'n und|sa- gen will.|
V:3
 e | e2 c2 B2 c2 | A2 G2 G2 z G | A2 D2 E2 G2 | E2 A2 A2 z G | A2 d2 B2 G2 | G2 ^F2 G2 z E | %7
w: Vom|Him- mel hoch da|komm ich her, ich|bring euch gu- te|neu- e Mär, der|gu- ten Mär bring|ich so- viel, da-|
 G2 A2 E2 E2 | (Ac) G2 !fermata!E2 z |] %9
w: von ich sing'n und|sa- * gen will.|
V:4
 C, | E,2 F,2 G,2 E,2 | F,2 G,2 C,2 z C, | A,,2 B,,2 C,2 E,2 | C,2 D,2 A,,2 z C, | %5
w: Vom|Him- mel hoch da|komm ich her, ich|bring euch gu- te|neu- e Mär, der|
 F,2 D,2 G,2 E,2 | %6
w: gu- ten Mär bring|
"^2. Euch ist ein Kindlein heut geborn / von einer Jungfrau auserkorn, /\n     ein Kindelein so zart und fein, / das soll eu'r Freud und Wonne sein.\n 3. Es ist der Herr Christ, unser Gott, / der will euch führn aus aller Not, /\n     er will eu'r Heiland selber sein, / von allen Sünden machen rein.\n 4. Er bringt euch alle Seligkeit, / die Gott der Vater hat bereit', /\n     daß ihr mit uns im Himmelreich / sollt leben nun und ewiglich.\n 5. So merket nun das Zeichen recht: / die Krippe, Windelein so schlecht, /\n     da findet ihr das Kind gelegt, / das alle Welt erhält und trägt.\"\n 6. Des laßt uns alle fröhlich sein / und mit den Hirten gehn hinein, /\n     zu sehn, was Gott uns hat beschert, / mit seinem lieben Sohn verehrt.\n15. Lob, Ehr sei Gott im höchsten Thron, / der uns schenkt seinen ein'gen Sohn. /\n     Des freuet sich der Engel Schar / und singet uns solch neues Jahr.\n" C,2 D,2 G,,2 z A,, | %7
w: ich so- viel, da-|
 E,2 F,2 C,2 C,2 | F,,2 G,,2 !fermata!C,2 z |] %9
w: von ich sing'n und|sa- gen will.|

